images/set-03-03.svg

<?xml version="1.0" encoding="UTF-8" standalone="no"?>
<svg width="66px" height="66px" viewBox="0 0 66 66" version="1.1" xmlns="http://www.w3.org/2000/svg" xmlns:xlink="http://www.w3.org/1999/xlink" xmlns:sketch="http://www.bohemiancoding.com/sketch/ns">
    <!-- Generator: Sketch 3.3.3 (12081) - http://www.bohemiancoding.com/sketch -->
    <title>set-03-03</title>
    <desc>Created with Sketch.</desc>
    <defs>
        <linearGradient x1="49.08522%" y1="50%" x2="49.3895484%" y2="49.2577567%" id="linearGradient-1">
            <stop stop-color="#E74C3C" offset="0%"></stop>
            <stop stop-color="#A82A1D" offset="100%"></stop>
        </linearGradient>
    </defs>
    <g id="Page-1" stroke="none" stroke-width="1" fill="none" fill-rule="evenodd" sketch:type="MSPage">
        <g id="set-03-03" sketch:type="MSArtboardGroup" fill="url(#linearGradient-1)">
            <path d="M33.2971485,17.5062805 C30.971815,17.5062805 29.0838482,15.6158839 29.0838482,13.2905503 C29.0838482,10.9676466 30.9742448,9.07725 33.2971485,9.07725 C35.6200523,9.07725 37.5128787,10.9676466 37.5128787,13.2905503 C37.5104489,15.6134541 35.6200523,17.5062805 33.2971485,17.5062805 L33.2971485,17.5062805 Z M33.2971485,10.4938325 C31.7566454,10.4938325 30.5028605,11.7500472 30.5028605,13.2881205 C30.5028605,14.8310535 31.7566454,16.0848383 33.2971485,16.0848383 C34.8400815,16.0848383 36.0938664,14.8286236 36.0938664,13.2881205 C36.0914365,11.7476174 34.8376517,10.4938325 33.2971485,10.4938325 L33.2971485,10.4938325 Z M57.1603681,33.948843 C57.714366,29.7331129 56.5820719,25.974188 53.9700201,23.364566 C50.5901465,19.9822626 45.1497893,19.1245377 39.697283,21.0781095 C37.7874479,19.7708687 35.6079032,19.0297749 33.2971485,19.0297749 C30.8746223,19.0297749 28.5978851,19.8413333 26.6200151,21.2724948 L26.6443133,21.2068897 C21.0848951,19.0832309 15.48417,19.911798 12.0289721,23.364566 C9.41935013,25.974188 8.28705604,29.7331129 8.83862419,33.948843 C9.38533271,38.0941085 11.504132,42.1956373 14.8062514,45.4977568 C15.5983713,46.2898767 16.4342279,46.8706026 17.3089616,47.4148814 L13.5791945,47.4148814 C10.8869588,47.4148814 10.5735126,49.1011734 10.5735126,50.3695372 C10.5735126,51.637901 10.8869588,53.3217632 13.5791945,53.3217632 L18.5214396,53.3217632 C18.9126399,53.3217632 19.2309457,53.0034574 19.2309457,52.612257 C19.2309457,52.2186269 18.9126399,51.9027509 18.5214396,51.9027509 L13.5791945,51.9027509 C12.1431735,51.9027509 11.9925249,51.4362263 11.9925249,50.3695372 C11.9925249,49.3028481 12.1431735,48.8363235 13.5791945,48.8363235 L53.0151026,48.8363235 C54.8374643,48.8363235 55.0439986,49.7110571 55.0439986,50.3695372 C55.0439986,51.0280172 54.8350345,51.9027509 53.0151026,51.9027509 L28.5322801,51.9027509 C28.1386499,51.9027509 27.8227739,52.2186269 27.8227739,52.612257 C27.8227739,53.0034574 28.1386499,53.3217632 28.5322801,53.3217632 L53.0175324,53.3217632 C55.1800683,53.3217632 56.4678706,52.2186269 56.4678706,50.3695372 C56.4678706,48.5180177 55.1800683,47.4148814 53.0175324,47.4148814 L48.6973201,47.4148814 C49.5671941,46.8706026 50.4054805,46.2898767 51.1951706,45.4977568 C54.4997199,42.1956373 56.6136595,38.0941085 57.1603681,33.948843 L57.1603681,33.948843 Z M19.4666379,47.4148814 C18.1739759,46.6106124 16.9420594,45.626537 15.8097653,44.4942429 C12.7287591,41.4132367 10.7508891,37.6008559 10.2479173,33.764177 C9.75466469,29.9931031 10.7411698,26.6569662 13.0349158,24.3680799 C15.9312561,21.4693098 20.6135108,20.6869092 25.3929582,22.2687192 C21.8940237,25.4614969 19.6027075,30.7171882 19.6027075,36.6483682 C19.6027075,40.565231 20.611081,44.3460242 22.4674602,47.4173112 L19.4666379,47.4173112 L19.4666379,47.4148814 Z M24.144033,47.4148814 C22.1321456,44.4505063 21.0241497,40.6284062 21.0241497,36.6459384 C21.0241497,27.713936 26.5325418,20.4487873 33.2995784,20.4487873 C40.0641851,20.4487873 45.5652878,27.713936 45.5652878,36.6459384 C45.5652878,40.6284062 44.4621515,44.4505063 42.4478343,47.4148814 L24.144033,47.4148814 L24.144033,47.4148814 Z M46.5347842,47.4148814 L44.1268369,47.4148814 C45.9807862,44.3435944 46.9843001,40.565231 46.9843001,36.6459384 C46.9843001,30.627285 44.6273789,25.3084186 41.0434008,22.1302197 C45.6721997,20.7355055 50.1552095,21.5519236 52.9665062,24.3656501 C55.2602522,26.6545364 56.2491872,29.9906733 55.751075,33.7617472 C55.2481031,37.5984261 53.272663,41.4108069 50.189227,44.4918131 C49.0569329,45.626537 47.829876,46.6106124 46.5347842,47.4148814 L46.5347842,47.4148814 Z M56.4678706,56.2132438 C56.4678706,55.8196137 56.1495647,55.5037377 55.7583644,55.5037377 L11.2490013,55.5037377 C10.8553712,55.5037377 10.5394951,55.8196137 10.5394951,56.2132438 C10.5394951,56.6044441 10.857801,56.92275 11.2490013,56.92275 L55.7583644,56.92275 C56.1495647,56.92275 56.4678706,56.6044441 56.4678706,56.2132438 L56.4678706,56.2132438 Z" id="Shape" sketch:type="MSShapeGroup"></path>
        </g>
    </g>
</svg>

<svg width="66" height="66" xmlns="http://www.w3.org/2000/svg"><defs><linearGradient x1="49.085%" y1="50%" x2="49.39%" y2="49.258%" id="linearGradient-1"><stop stop-color="#E74C3C" offset="0%"/><stop stop-color="#A82A1D" offset="100%"/></linearGradient></defs><g id="Page-1" stroke="none" stroke-width="1" fill="none" fill-rule="evenodd"><g id="set-03-03" fill="url(#linearGradient-1)"><path d="M33.297 17.506a4.217 4.217 0 01-4.213-4.215 4.218 4.218 0 014.213-4.214 4.22 4.22 0 014.216 4.214 4.224 4.224 0 01-4.216 4.215zm0-7.012a2.8 2.8 0 00-2.794 2.794 2.798 2.798 0 002.794 2.797 2.8 2.8 0 002.797-2.797 2.801 2.801 0 00-2.797-2.794zM57.16 33.949c.554-4.216-.578-7.975-3.19-10.584-3.38-3.383-8.82-4.24-14.273-2.287-1.91-1.307-4.09-2.048-6.4-2.048-2.422 0-4.7.811-6.677 2.242l.024-.065c-5.56-2.124-11.16-1.295-14.615 2.158-2.61 2.61-3.742 6.368-3.19 10.584.546 4.145 2.665 8.247 5.967 11.549.792.792 1.628 1.373 2.503 1.917h-3.73c-2.692 0-3.005 1.686-3.005 2.955 0 1.268.313 2.952 3.005 2.952h4.942a.71.71 0 000-1.42H13.58c-1.436 0-1.586-.466-1.586-1.532 0-1.067.15-1.534 1.586-1.534h39.436c1.822 0 2.029.875 2.029 1.534 0 .658-.209 1.533-2.029 1.533H28.532a.709.709 0 100 1.419h24.486c2.162 0 3.45-1.103 3.45-2.952 0-1.852-1.288-2.955-3.45-2.955h-4.32c.87-.544 1.707-1.125 2.497-1.917 3.305-3.302 5.419-7.404 5.965-11.55zM19.467 47.415a20.55 20.55 0 01-3.657-2.92c-3.081-3.082-5.06-6.894-5.562-10.73-.493-3.772.493-7.108 2.787-9.397 2.896-2.899 7.579-3.681 12.358-2.1-3.499 3.193-5.79 8.45-5.79 14.38 0 3.917 1.008 7.698 2.864 10.77h-3v-.003zm4.677 0c-2.012-2.964-3.12-6.787-3.12-10.77 0-8.931 5.509-16.196 12.276-16.196 6.764 0 12.265 7.265 12.265 16.197 0 3.982-1.103 7.805-3.117 10.769H24.144zm22.39 0h-2.407c1.854-3.071 2.857-6.85 2.857-10.77 0-6.018-2.357-11.337-5.94-14.515 4.628-1.394 9.111-.578 11.923 2.236 2.293 2.289 3.282 5.625 2.784 9.396-.503 3.836-2.478 7.649-5.562 10.73a20.356 20.356 0 01-3.654 2.923zm9.934 8.798a.709.709 0 00-.71-.71H11.25a.71.71 0 000 1.419h44.51a.71.71 0 00.709-.709z" id="Shape"/></g></g></svg>
